X: 5260
T: Broken Whistle, The
R: strathspey
M: 4/4
K: Edorian
|:BE E/E/z/B/ Bc/d/ e F/D/|EB B/E/z/B/ AF/D/ AF/D/|
BE E/E/z/B/ Bc/d/ e d/B/|eE E/E/z/B/ AF/D/ E F/A/:|
|:Be e/e/z/e/ ef/g/ a d/B/|Be e/E/z/B/ AF/D/ AF/D/|
Be e/e/z/e/ ef/g/ a/a/ g/e/|eE E/E/z/B/ AF/D/ E F/A/:|

